X: 02099
T: PEGGY'S DOOZY
C: Bob McQuillen Jan'75
B: Bob's Note Book 1&2 #99
%R: polka, reel
Z: 2019 John Chambers <jc:trillian.mit.edu>
M: C
L: 1/8
K: Em
GA \
| B2G2 AGAc | B2E2 E2GA | B2d2 edc2 | B6 GA |\
|1 B2e2 e2dc | B2G2 A2BA | G2E2 FED2 | E6 :|\
|2 B2G2 A2c2 | B2e2 e2ef |
   g2e2 fed2 | e6 ||\
|: ef \
| g2e2 edeg | f2d2 d2Bd | c2cd edc2 | B6 cB |\
A2e2 eABc | B2e2 e2ga | b2a2 g2f2 | e6 :|
%%begintext align
%% For Peggy Duesenberry, a
%% fine, far-out, favorite female
%% fiddler. Fantastic sight reader.
%%endtext

%%sep 1 1 500

%%sep 1 1 500

